X:1133
T:The maids in the morning.
C:Jackson.
N:cf Shetland "Da Full Rigged Ship"
M:6/8
L:1/8
Q:3/8=104
I: :: :: :: ::
Z:Jack Campin * www.campin.me.uk * 2009
K:A Dorian
 EFE   G2A |BAG B3|EFE G2A|(GE)A  GED | EFE   G2A |BAG B3 |efg dBG|A3 A3:|
(AG)E (AG)E|A2B c3|EFE G2A|(GE)A (GE)D|(AG)E (AG)D|A2B c2d|efg dBG|A3 A3:|
 def   gdB |A2B c3|EFE G2A| GEA   GED | def   gdB |A2B c2d|edB gdB|A3 A3:|
 gdB   gdB |A2B c3|EFE G2A| GEA   GED | gdB   gdB |A2B c2d|edB gdB|A3 A3:|
<end>
<start>
